2 Export/Icons/Brands/Reddit.svg

<svg xmlns="http://www.w3.org/2000/svg" xmlns:xlink="http://www.w3.org/1999/xlink" width="24" height="24" viewBox="0 0 24 24">
  <defs>
    <path id="reddit-a" d="M4.65293113,13.0663722 C4.607933,13.2733636 4.58468397,13.4863547 4.58468397,13.7015958 C4.58468397,16.2837382 7.88604641,18.3881505 11.9448773,18.3881505 C16.0022082,18.3881505 19.3035707,16.2852381 19.3035707,13.7015958 C19.3035707,13.4961043 19.2818216,13.2921128 19.2420732,13.094871 L19.2308237,13.070872 C19.2150744,13.0296238 19.2090746,12.9883755 19.2090746,12.9471272 C18.9825841,12.0659139 18.3713595,11.2664472 17.4871464,10.6199742 C17.4533978,10.6079747 17.4211491,10.5907254 17.3926503,10.5674764 C17.3731511,10.552477 17.3589017,10.5359777 17.3424024,10.5194784 C15.9984584,9.59401692 14.0755385,9.0135411 11.9456273,9.0135411 C9.83446523,9.0135411 7.93029457,9.58276738 6.58635057,10.4917295 C6.57585101,10.5052289 6.56460147,10.5164785 6.5496021,10.528478 C6.52035332,10.5532269 6.48660472,10.5734761 6.45210616,10.5847256 C5.54764385,11.2311987 4.92066997,12.0374151 4.68667972,12.926878 C4.68667972,12.9703762 4.67618016,13.0123745 4.65893088,13.0551227 L4.65293113,13.0663722 L4.65293113,13.0663722 Z M11.9823757,17.1469522 C10.6369318,17.1469522 9.68972126,16.8552144 9.08524645,16.2492396 C8.95550185,16.1187451 8.95550185,15.9065039 9.08524645,15.7752594 C9.21724095,15.6515145 9.43023207,15.6515145 9.56147661,15.7752594 C10.0339569,16.2469897 10.825174,16.4824799 11.9823757,16.4824799 C13.1388275,16.4824799 13.9255448,16.2574893 14.3965251,15.7857589 C14.52027,15.6627641 14.7340111,15.6627641 14.8682555,15.7857589 C14.9920003,15.9207533 14.9920003,16.1344944 14.8682555,16.2694888 C14.2615308,16.8754635 13.31957,17.1679513 11.9718762,17.1679513 L11.9823757,17.1469522 L11.9823757,17.1469522 Z M9.27798842,11.4674389 C8.59251698,11.4674389 8.02029082,12.041165 8.02029082,12.7251365 C8.02029082,13.407608 8.59251698,13.9625849 9.27798842,13.9625849 C9.96345986,13.9625849 10.5161868,13.407608 10.5161868,12.7251365 C10.5161868,12.041165 9.96195992,11.4674389 9.27798842,11.4674389 Z M14.7025124,11.4674389 C14.017041,11.4674389 13.4440648,12.041165 13.4440648,12.7251365 C13.4440648,13.407608 14.017041,13.9625849 14.7025124,13.9625849 C15.3879838,13.9625849 15.9407108,13.407608 15.9407108,12.7251365 C15.9407108,12.041165 15.3864839,11.4674389 14.7025124,11.4674389 Z M18.1133703,10.2712387 C18.8910879,10.8959627 19.463314,11.6369318 19.7550519,12.449148 C20.0925378,12.1971585 20.2942794,11.801175 20.2942794,11.3624432 C20.2942794,10.6109745 19.6830549,10.0005 18.9308362,10.0005 C18.6315987,10.0005 18.3473605,10.0972459 18.1133703,10.2727386 L18.1133703,10.2712387 L18.1133703,10.2712387 Z M5.03316528,10.0019999 C4.28094663,10.0019999 3.67047206,10.6139744 3.67047206,11.3654431 C3.67047206,11.7726761 3.8497146,12.1514104 4.15345194,12.4071497 C4.45418941,11.5979334 5.03241532,10.8674639 5.81313279,10.2502396 C5.58664222,10.0927461 5.3159035,10.0034999 5.03391525,10.0034999 L5.03391525,10.0019999 L5.03316528,10.0019999 Z M11.9456273,19.0608725 C7.51631182,19.0608725 3.91421191,16.6572226 3.91421191,13.7045956 C3.91421191,13.4983542 3.93146119,13.2966126 3.96520978,13.0978709 C3.37048456,12.7281363 3,12.0764135 3,11.3624432 C3,10.24049 3.92021166,9.32777801 5.04366485,9.32777801 C5.54914379,9.32777801 6.02087413,9.51227032 6.39135869,9.8392567 C7.7833007,8.94604391 9.65897254,8.38356735 11.7251365,8.34531895 L13.0840798,4.20249156 L13.3870672,4.27373859 C13.3870672,4.27373859 13.3990667,4.27373859 13.3990667,4.27523853 L16.5661847,5.0199575 C16.824174,4.42148244 17.4196492,4 18.1148702,4 C19.0365818,4 19.7880505,4.75296863 19.7880505,5.67543019 C19.7880505,6.59939169 19.0358318,7.35086038 18.1148702,7.35086038 C17.1939086,7.35086038 16.4424399,6.59789175 16.4424399,5.67843007 L13.5543102,4.99445856 L12.4541061,8.35206866 C14.4415233,8.43081538 16.2391984,8.99254198 17.5868922,9.86775551 C17.9573768,9.51977001 18.4448565,9.32852798 18.9615849,9.32852798 C20.0850381,9.32852798 21,10.2382401 21,11.3616933 C21,12.1019124 20.5950169,12.7761343 19.9665431,13.1353694 C19.9882922,13.3266114 20.0107912,13.5058539 20.0107912,13.697096 C19.9995417,16.6504729 16.4064414,19.0541227 11.9711262,19.0541227 L11.9456273,19.0608725 L11.9456273,19.0608725 Z M18.0796217,4.67122203 C17.5246448,4.67122203 17.0746636,5.12045331 17.0746636,5.67468022 C17.0746636,6.22815716 17.5246448,6.67963835 18.0796217,6.67963835 C18.6285988,6.67963835 19.0770801,6.2296571 19.0770801,5.67918003 C19.0770801,5.12945294 18.6285988,4.68022166 18.0668722,4.68022166 L18.0796217,4.67122203 L18.0796217,4.67122203 Z"/>
  </defs>
  <g fill="none" fill-rule="evenodd">
    <polygon points="0 0 24 0 24 24 0 24"/>
    <mask id="reddit-b" fill="#fff">
      <use xlink:href="#reddit-a"/>
    </mask>
    <use fill="#000" xlink:href="#reddit-a"/>
    <g fill="#000" mask="url(#reddit-b)">
      <rect width="24" height="24"/>
    </g>
  </g>
</svg>

<svg xmlns="http://www.w3.org/2000/svg" xmlns:xlink="http://www.w3.org/1999/xlink" width="24" height="24" viewBox="0 0 24 24">
  <defs>
    <path id="reddit-a" d="M4.653 13.066a2.99 2.99 0 0 0-.068.636c0 2.582 3.301 4.686 7.36 4.686 4.057 0 7.359-2.103 7.359-4.686 0-.206-.022-.41-.062-.607l-.011-.024a.342.342 0 0 1-.022-.124c-.226-.881-.838-1.68-1.722-2.327a.317.317 0 0 1-.094-.053c-.02-.015-.034-.031-.05-.048-1.345-.925-3.267-1.505-5.397-1.505-2.112 0-4.016.569-5.36 1.478a.298.298 0 0 1-.134.093c-.904.646-1.531 1.452-1.765 2.342a.34.34 0 0 1-.028.128l-.006.011zm7.33 4.081c-1.346 0-2.293-.292-2.898-.898a.337.337 0 0 1 0-.474.352.352 0 0 1 .476 0c.473.472 1.264.707 2.421.707 1.157 0 1.944-.225 2.415-.696a.348.348 0 0 1 .471 0 .362.362 0 0 1 0 .483c-.606.606-1.548.899-2.896.899l.01-.021zm-2.705-5.68a1.27 1.27 0 0 0-1.258 1.258c0 .683.573 1.238 1.258 1.238s1.238-.555 1.238-1.238c0-.684-.554-1.258-1.238-1.258zm5.425 0c-.686 0-1.259.574-1.259 1.258 0 .683.573 1.238 1.259 1.238.685 0 1.238-.555 1.238-1.238 0-.684-.555-1.258-1.238-1.258zm3.41-1.196c.778.625 1.35 1.366 1.642 2.178a1.364 1.364 0 1 0-1.642-2.176v-.002zm-13.08-.269a1.364 1.364 0 0 0-.88 2.405c.301-.81.88-1.54 1.66-2.157a1.366 1.366 0 0 0-.78-.247v-.001zm6.913 9.059c-4.43 0-8.032-2.404-8.032-5.356 0-.207.017-.408.051-.607A2.042 2.042 0 0 1 3 11.362a2.043 2.043 0 0 1 3.391-1.523c1.392-.893 3.268-1.455 5.334-1.494l1.36-4.143.302.072.012.001 3.167.745a1.678 1.678 0 0 1 3.222.655c0 .924-.752 1.676-1.673 1.676a1.677 1.677 0 0 1-1.673-1.673l-2.888-.684-1.1 3.358c1.988.079 3.785.64 5.133 1.516.37-.348.858-.54 1.375-.54 1.123 0 2.038.91 2.038 2.034a2.05 2.05 0 0 1-1.033 1.773c.021.192.044.37.044.562-.011 2.953-3.605 5.357-8.04 5.357l-.025.007zM18.08 4.67a1.004 1.004 0 1 0 0 2.009c.549 0 .997-.45.997-1s-.448-1-1.01-1l.013-.009z"/>
  </defs>
  <g fill="none" fill-rule="evenodd">
    <polygon points="0 0 24 0 24 24 0 24"/>
    <mask id="reddit-b" fill="#fff">
      <use xlink:href="#reddit-a"/>
    </mask>
    <use fill="#000" xlink:href="#reddit-a"/>
    <g fill="#000" mask="url(#reddit-b)">
      <rect width="24" height="24"/>
    </g>
  </g>
</svg>
